X: 33751
T: Rattlin' Bog, The
R: polka
M: 2/4
K: Dmajor
|:f2 f>e|dB Bd|Ad d/c/d/e/|fe ea|
f2 f>e|dB Bd|Aa ag|fe e>f:|
|:fd ed|fd ed/e/|ea af|ed e>e|
fd ed|fd ed/e/|ea af|1 ed d>e:|2 ed d2||

